ix/tag-2_broken.svg

<svg viewBox="0 0 24 24" fill="none" xmlns="http://www.w3.org/2000/svg" height="1em" width="1em">
  <path d="M15.3005 4.17005C14.3505 3.22005 13.0405 2.71005 11.7005 2.78005L6.70046 3.02005C4.70046 3.11005 3.11046 4.70005 3.01046 6.69005L2.77046 11.69C2.71046 13.03 3.21046 14.34 4.16046 15.29L8.69046 19.82C10.5505 21.68 13.5705 21.68 15.4405 19.82L19.8305 15.43C21.6905 13.57 21.6905 10.55 19.8305 8.68005L18.7005 7.55005" stroke="#292D32" stroke-width="1.5" stroke-linecap="round" stroke-linejoin="round"/>
  <path d="M8.51 11.8C8.81 11.93 9.15 12 9.5 12C10.88 12 12 10.88 12 9.5C12 8.12 10.88 7 9.5 7C8.12 7 7 8.12 7 9.5" stroke="#292D32" stroke-width="1.5" stroke-linecap="round"/>
  <path d="M13 17L17 13" stroke="#292D32" stroke-width="1.5" stroke-miterlimit="10" stroke-linecap="round" stroke-linejoin="round"/>
</svg>

<svg viewBox="0 0 24 24" fill="none" xmlns="http://www.w3.org/2000/svg" height="1em" width="1em">
  <path d="M15.3 4.17a4.75 4.75 0 0 0-3.6-1.39l-5 .24c-2 .09-3.59 1.68-3.69 3.67l-.24 5c-.06 1.34.44 2.65 1.39 3.6l4.53 4.53a4.78 4.78 0 0 0 6.75 0l4.39-4.39a4.78 4.78 0 0 0 0-6.75L18.7 7.55" stroke="#292D32" stroke-width="1.5" stroke-linecap="round" stroke-linejoin="round"/>
  <path d="M8.51 11.8c.3.13.64.2.99.2a2.5 2.5 0 0 0 0-5A2.5 2.5 0 0 0 7 9.5" stroke="#292D32" stroke-width="1.5" stroke-linecap="round"/>
  <path d="m13 17 4-4" stroke="#292D32" stroke-width="1.5" stroke-miterlimit="10" stroke-linecap="round" stroke-linejoin="round"/>
</svg>
